X: 11828
T: Ellis's
R: jig
M: 6/8
K: Gmajor
|:D|GDG B2 G|c2 A FF/E/D|GDG B2 c|d2 g B2 c|
dge f2 d|cAG FF/G/A|d>ed cAF|G3 G2:|
|:d|g2 d B2 G|c2 A F2 D|g2 d B2 c|d2 e f2 e|
dge f2 d|cc/B/A F2 A|d>ed cAF|G3 G2:|

